Suru++-Ubuntu/mimetypes/symbolic/application-x-trash-symbolic.svg

<svg xmlns="http://www.w3.org/2000/svg" width="16" height="16.001" version="1.1">
 <path style="fill:#808080" d="m 8.002231,0.00100059 c -0.988474,0 -1.940203,0.184463 -2.854911,0.553296 C 4.419576,0.84062259 3.760376,1.2348597 3.167689,1.7334227 L 2.110212,0.77555559 1.252789,4.7521197 5.124999,3.5063067 4.071706,2.5523437 c 0.42616,-0.365616 0.901817,-0.663755 1.429688,-0.891461 0.767175,-0.324575 1.600883,-0.48689 2.500837,-0.48689 0.899955,0 1.726096,0.162315 2.478516,0.48689 0.767174,0.324569 1.423712,0.789084 1.969586,1.39397 0.545873,0.590136 0.97366,1.305821 1.283481,2.146766 0.30982,0.84094 0.464845,1.770239 0.464845,2.788222 0,1.017983 -0.155025,1.9475628 -0.464845,2.7885063 -0.309821,0.840939 -0.737608,1.563914 -1.283481,2.1688 -0.545874,0.590136 -1.202412,1.05465 -1.969586,1.393977 -0.75242,0.324568 -1.578561,0.486884 -2.478516,0.486884 -0.899954,0 -1.733662,-0.162316 -2.500837,-0.486884 C 4.748974,14.001797 4.100003,13.537283 3.554129,12.947147 3.008255,12.342261 2.580466,11.619286 2.270646,10.778347 1.960827,9.9374035 1.805804,9.0078237 1.805804,7.9898407 c 0,-0.842554 0.108047,-1.62335 0.320311,-2.344586 L 0.675223,6.1120527 C 0.559554,6.7011897 0.5,7.3263017 0.5,7.9898407 c 0,1.268787 0.206605,2.3974063 0.619698,3.3858823 0.413095,0.98847 0.958901,1.829469 1.637555,2.522877 0.693407,0.678652 1.490113,1.202316 2.390067,1.571149 0.914708,0.354083 1.866437,0.53125 2.854911,0.53125 0.988474,0 1.932636,-0.177167 2.832588,-0.53125 0.914709,-0.368833 1.711414,-0.892497 2.390067,-1.571149 0.693407,-0.693408 1.246784,-1.534407 1.659877,-2.522877 0.413093,-0.988476 0.61942,-2.1170953 0.61942,-3.3858823 0,-1.254036 -0.206327,-2.375087 -0.61942,-3.363558 C 14.47167,3.6230557 13.918293,2.7820577 13.224886,2.1034007 12.546233,1.4247487 11.749528,0.90837855 10.834819,0.55429659 9.934867,0.18546359 8.990705,0.00100059 8.002231,0.00100059 Z M 8.560546,2.8581447 c -0.316572,0 -0.571429,0.254859 -0.571429,0.571427 v 4.571429 H 5.131974 c -0.316571,0 -0.571428,0.254859 -0.571428,0.571432 0,0.316568 0.254857,0.571427 0.571428,0.571427 h 3.428572 c 0.316571,0 0.571428,-0.254859 0.571428,-0.571427 v -5.142861 c 0,-0.316568 -0.254857,-0.571427 -0.571428,-0.571427 z"/>
</svg>

<svg width="16" height="16.001" version="1.1" xmlns="http://www.w3.org/2000/svg">
 <path d="m8.002231 0.00100059c-0.988474 0-1.940203 0.184463-2.854911 0.553296-0.727744 0.286326-1.386944 0.68056311-1.979631 1.1791261l-1.057477-0.95786711-0.857423 3.9765641 3.87221-1.245813-1.053293-0.953963c0.42616-0.365616 0.901817-0.663755 1.429688-0.891461 0.767175-0.324575 1.600883-0.48689 2.500837-0.48689 0.899955 0 1.726096 0.162315 2.478516 0.48689 0.767174 0.324569 1.423712 0.789084 1.969586 1.39397 0.545873 0.590136 0.97366 1.305821 1.283481 2.146766 0.30982 0.84094 0.464845 1.770239 0.464845 2.788222s-0.155025 1.9475628-0.464845 2.7885063c-0.309821 0.840939-0.737608 1.563914-1.283481 2.1688-0.545874 0.590136-1.202412 1.05465-1.969586 1.393977-0.75242 0.324568-1.578561 0.486884-2.478516 0.486884-0.899954 0-1.733662-0.162316-2.500837-0.486884-0.75242-0.339327-1.401391-0.803841-1.947265-1.393977-0.545874-0.604886-0.973663-1.327861-1.283483-2.1688-0.309819-0.8409435-0.464842-1.7705233-0.464842-2.7885063 0-0.842554 0.108047-1.62335 0.320311-2.344586l-1.450892 0.466798c-0.115669 0.589137-0.175223 1.214249-0.175223 1.877788 0 1.268787 0.206605 2.3974063 0.619698 3.3858823 0.413095 0.98847 0.958901 1.829469 1.637555 2.522877 0.693407 0.678652 1.490113 1.202316 2.390067 1.571149 0.914708 0.354083 1.866437 0.53125 2.854911 0.53125s1.932636-0.177167 2.832588-0.53125c0.914709-0.368833 1.711414-0.892497 2.390067-1.571149 0.693407-0.693408 1.246784-1.534407 1.659877-2.522877 0.413093-0.988476 0.61942-2.1170953 0.61942-3.3858823 0-1.254036-0.206327-2.375087-0.61942-3.363558-0.413093-1.003227-0.96647-1.844225-1.659877-2.522882-0.678653-0.678652-1.475358-1.1950222-2.390067-1.5491041-0.899952-0.368833-1.844114-0.553296-2.832588-0.553296zm0.558315 2.8571441c-0.316572 0-0.571429 0.254859-0.571429 0.571427v4.571429h-2.857143c-0.316571 0-0.571428 0.254859-0.571428 0.571432 0 0.316568 0.254857 0.571427 0.571428 0.571427h3.428572c0.316571 0 0.571428-0.254859 0.571428-0.571427v-5.142861c0-0.316568-0.254857-0.571427-0.571428-0.571427z" style="fill:#808080"/>
</svg>
